static/assets/images/exchanges/tapbit.svg

<svg width="183" height="256" viewBox="0 0 183 256" fill="none" xmlns="http://www.w3.org/2000/svg">
<path fill-rule="evenodd" clip-rule="evenodd" d="M15.4634 0H98.7479C107.185 0 114.142 6.9159 114.142 15.3656V99.1094C114.142 107.531 107.213 114.475 98.7479 114.475H15.4634C7.02601 114.475 0.0693359 107.559 0.0693359 99.1094V15.3656C0.0693359 6.9159 7.02601 0 15.4634 0ZM118.975 113.555H172.98C178.4 113.555 182.926 118.072 182.926 123.482V177.694C182.926 183.104 178.4 187.622 172.98 187.622H118.975C112.633 187.622 108.107 187.315 108.107 197.271V246.965C108.107 252.096 103.889 256 99.0553 256H49.5763C44.4356 256 40.5242 251.789 40.5242 246.965V197.298C40.5242 192.167 44.7429 188.263 49.5763 188.263H99.0553C106.906 188.263 109.001 185.558 109.001 177.722V123.482C109.001 118.072 113.527 113.555 118.975 113.555Z" fill="#3576EE"/>
</svg>

<svg xmlns="http://www.w3.org/2000/svg" fill="none" viewBox="0 0 183 256"><path fill="#3576EE" fill-rule="evenodd" d="M15.463 0h83.285c8.437 0 15.394 6.916 15.394 15.366v83.743c0 8.422-6.929 15.366-15.394 15.366H15.463C7.026 114.475.07 107.559.07 99.109V15.366C.07 6.916 7.026 0 15.463 0m103.512 113.555h54.005c5.42 0 9.946 4.517 9.946 9.927v54.212c0 5.41-4.526 9.928-9.946 9.928h-54.005c-6.342 0-10.868-.307-10.868 9.649v49.694c0 5.131-4.218 9.035-9.052 9.035H49.576c-5.14 0-9.052-4.211-9.052-9.035v-49.667c0-5.131 4.219-9.035 9.052-9.035h49.48c7.85 0 9.945-2.705 9.945-10.541v-54.24c0-5.41 4.526-9.927 9.974-9.927" clip-rule="evenodd"/></svg>
